X:169
T: Das hungernde Kind
N: Q0115E
O: Osteuropa, UdSSR, Bessarabien
R: Ballade, Hunger, Tod
M: 4/4
L: 1/8
K: G
 | G2G2d2d2 | e2e2d2z2 |
c3dB2G2 | A2A2G2z2 |
G2G2d2d2 | e2e2d2z2 |
c3dB2G2 | A4G2z2

@@@ Tune index: 1462
